assets/images/iconWind.svg

<svg fill="none" height="30" viewBox="0 0 31 30" width="31" xmlns="http://www.w3.org/2000/svg" xmlns:xlink="http://www.w3.org/1999/xlink"><filter id="a" color-interpolation-filters="sRGB" filterUnits="userSpaceOnUse" height="37.9999" width="36.3892" x="-2.69482" y="0"><feFlood flood-opacity="0" result="BackgroundImageFix"/><feColorMatrix in="SourceAlpha" result="hardAlpha" type="matrix" values="0 0 0 0 0 0 0 0 0 0 0 0 0 0 0 0 0 0 127 0"/><feOffset dy="4"/><feGaussianBlur stdDeviation="2"/><feComposite in2="hardAlpha" operator="out"/><feColorMatrix type="matrix" values="0 0 0 0 0 0 0 0 0 0 0 0 0 0 0 0 0 0 0.25 0"/><feBlend in2="BackgroundImageFix" mode="normal" result="effect1_dropShadow_2275_1588"/><feBlend in="SourceGraphic" in2="effect1_dropShadow_2275_1588" mode="normal" result="shape"/></filter><g fill="#fff" filter="url(#a)"><path d="m2.62772 16.4507h21.43148c3.1072 0 5.6349-2.5279 5.6349-5.6349 0-3.10252-2.5204-5.62747-5.6214-5.63483-.3055-.0046-2.289.02285-3.7702 1.46701-.9924.9675-1.4954 2.29692-1.4954 3.95112 0 .7305.592 1.3226 1.3225 1.3226s1.3225-.5922 1.3225-1.3226c0-.90597.2302-1.59391.6841-2.04455.7073-.70245 1.8076-.72774 1.8955-.72862.0124.00039.0108.00019.0275.00019 1.6486 0 2.9898 1.34118 2.9898 2.98968 0 1.6486-1.3411 2.9897-2.9898 2.9897h-21.43148c-.73044 0-1.32254.5922-1.32254 1.3226s.5921 1.3226 1.32254 1.3226z"/><path d="m2.62772 11.27h10.21538c3.107 0 5.6348-2.52786 5.6348-5.63492 0-3.10269-2.5204-5.6277433-5.6215-5.63480213-.3091-.00431372-2.2895.02323533-3.77029 1.46701213-.99226.9676-1.4954 2.29701-1.4954 3.95122 0 .73044.59206 1.32265 1.32255 1.32265s1.32244-.59216 1.32244-1.32265c0-.90598.2303-1.59392.6841-2.04456.7072-.70235 1.8075-.72784 1.8958-.72872.0123.00039.0107.00019.0274.00019 1.6485 0 2.9898 1.34118 2.9898 2.98966 0 1.64858-1.3412 2.98976-2.9898 2.98976h-10.21528c-.73044 0-1.32254.59215-1.32254 1.32264 0 .73052.5921 1.32252 1.32254 1.32252z"/><path d="m24.0592 18.73h-21.43148c-.73044 0-1.32254.5921-1.32254 1.3225s.59205 1.3226 1.32254 1.3226h21.43148c1.6486 0 2.9899 1.3412 2.9899 2.9896 0 1.6486-1.3412 2.9898-2.9899 2.9898-.0166 0-.0151-.0003-.0274.0002-.0881-.0009-1.1884-.0263-1.8956-.7286-.4538-.4507-.6841-1.1386-.6841-2.0447 0-.7304-.592-1.3226-1.3224-1.3226-.7305 0-1.3226.5921-1.3226 1.3226 0 1.6543.5031 2.9837 1.4954 3.9512 1.4215 1.3862 3.3043 1.4674 3.7252 1.4673.0177 0 .0327-.0001.0451-.0003 3.101-.0073 5.6214-2.5323 5.6214-5.6348 0-3.1071-2.5278-5.6348-5.635-5.6348z"/></g></svg>

<svg width="31" height="30" viewBox="0 0 31 30" fill="none" xmlns="http://www.w3.org/2000/svg">
<g filter="url(#filter0_d_2275_1588)">
<path d="M2.62772 16.4507H24.0592C27.1664 16.4507 29.6941 13.9228 29.6941 10.8158C29.6941 7.71328 27.1737 5.18833 24.0727 5.18097C23.7672 5.17637 21.7837 5.20382 20.3025 6.64798C19.3101 7.61548 18.8071 8.9449 18.8071 10.5991C18.8071 11.3296 19.3991 11.9217 20.1296 11.9217C20.8601 11.9217 21.4521 11.3295 21.4521 10.5991C21.4521 9.69313 21.6823 9.00519 22.1362 8.55455C22.8435 7.8521 23.9438 7.82681 24.0317 7.82593C24.0441 7.82632 24.0425 7.82612 24.0592 7.82612C25.7078 7.82612 27.049 9.1673 27.049 10.8158C27.049 12.4644 25.7079 13.8055 24.0592 13.8055H2.62772C1.89728 13.8055 1.30518 14.3977 1.30518 15.1281C1.30518 15.8585 1.89728 16.4507 2.62772 16.4507Z" fill="white"/>
<path d="M2.62772 11.27H12.8431C15.9501 11.27 18.4779 8.74214 18.4779 5.63508C18.4779 2.53239 15.9575 0.0073367 12.8564 0.000277874C12.5473 -0.00403585 10.5669 0.0235132 9.08611 1.46729C8.09385 2.43489 7.59071 3.7643 7.59071 5.41851C7.59071 6.14895 8.18277 6.74116 8.91326 6.74116C9.64375 6.74116 10.2357 6.149 10.2357 5.41851C10.2357 4.51253 10.466 3.82459 10.9198 3.37395C11.627 2.6716 12.7273 2.64611 12.8156 2.64523C12.8279 2.64562 12.8263 2.64542 12.843 2.64542C14.4915 2.64542 15.8328 3.9866 15.8328 5.63508C15.8328 7.28366 14.4916 8.62484 12.843 8.62484H2.62772C1.89728 8.62484 1.30518 9.21699 1.30518 9.94748C1.30518 10.678 1.89728 11.27 2.62772 11.27Z" fill="white"/>
<path d="M24.0592 18.73H2.62772C1.89728 18.73 1.30518 19.3221 1.30518 20.0525C1.30518 20.7829 1.89723 21.3751 2.62772 21.3751H24.0592C25.7078 21.3751 27.0491 22.7163 27.0491 24.3647C27.0491 26.0133 25.7079 27.3545 24.0592 27.3545C24.0426 27.3545 24.0441 27.3542 24.0318 27.3547C23.9437 27.3538 22.8434 27.3284 22.1362 26.6261C21.6824 26.1754 21.4521 25.4875 21.4521 24.5814C21.4521 23.851 20.8601 23.2588 20.1297 23.2588C19.3992 23.2588 18.8071 23.8509 18.8071 24.5814C18.8071 26.2357 19.3102 27.5651 20.3025 28.5326C21.724 29.9188 23.6068 30 24.0277 29.9999C24.0454 29.9999 24.0604 29.9998 24.0728 29.9996C27.1738 29.9923 29.6942 27.4673 29.6942 24.3648C29.6942 21.2577 27.1664 18.73 24.0592 18.73Z" fill="white"/>
</g>
<defs>
<filter id="filter0_d_2275_1588" x="-2.69482" y="0" width="36.3892" height="37.9999" filterUnits="userSpaceOnUse" color-interpolation-filters="sRGB">
<feFlood flood-opacity="0" result="BackgroundImageFix"/>
<feColorMatrix in="SourceAlpha" type="matrix" values="0 0 0 0 0 0 0 0 0 0 0 0 0 0 0 0 0 0 127 0" result="hardAlpha"/>
<feOffset dy="4"/>
<feGaussianBlur stdDeviation="2"/>
<feComposite in2="hardAlpha" operator="out"/>
<feColorMatrix type="matrix" values="0 0 0 0 0 0 0 0 0 0 0 0 0 0 0 0 0 0 0.25 0"/>
<feBlend mode="normal" in2="BackgroundImageFix" result="effect1_dropShadow_2275_1588"/>
<feBlend mode="normal" in="SourceGraphic" in2="effect1_dropShadow_2275_1588" result="shape"/>
</filter>
</defs>
</svg>
